packages/assets/static/images/icons/share-fat.svg

<svg width="24" height="24" viewBox="0 0 24 24" xmlns="http://www.w3.org/2000/svg">
<path d="M22.2807 11.095L14.7807 3.59497C14.6759 3.49001 14.5423 3.41851 14.3968 3.38949C14.2513 3.36047 14.1005 3.37525 13.9634 3.43194C13.8263 3.48864 13.7091 3.58472 13.6267 3.70802C13.5442 3.83132 13.5001 3.97631 13.5001 4.12465V7.90746C11.0682 8.11559 8.38225 9.30622 6.17256 11.1803C3.51194 13.4378 1.85538 16.3468 1.50757 19.3712C1.48038 19.6063 1.52806 19.8441 1.64381 20.0505C1.75955 20.257 1.93747 20.4217 2.15224 20.5212C2.36702 20.6207 2.6077 20.6499 2.84004 20.6047C3.07237 20.5595 3.28453 20.4421 3.44631 20.2693C4.47756 19.1715 8.14694 15.7 13.5001 15.3943V19.1247C13.5001 19.273 13.5442 19.418 13.6267 19.5413C13.7091 19.6646 13.8263 19.7607 13.9634 19.8174C14.1005 19.8741 14.2513 19.8888 14.3968 19.8598C14.5423 19.8308 14.6759 19.7593 14.7807 19.6543L22.2807 12.1543C22.4209 12.0137 22.4997 11.8233 22.4997 11.6247C22.4997 11.4261 22.4209 11.2356 22.2807 11.095ZM15.0001 17.3143V14.6247C15.0001 14.4257 14.921 14.235 14.7804 14.0943C14.6397 13.9537 14.449 13.8747 14.2501 13.8747C11.6176 13.8747 9.0535 14.5618 6.62913 15.9184C5.39439 16.6124 4.24395 17.4466 3.20069 18.4047C3.74444 16.1697 5.11507 14.0443 7.14288 12.324C9.31975 10.4781 11.9766 9.37465 14.2501 9.37465C14.449 9.37465 14.6397 9.29563 14.7804 9.15498C14.921 9.01433 15.0001 8.82357 15.0001 8.62465V5.9359L20.6898 11.6247L15.0001 17.3143Z"/>
</svg>

<svg viewBox="0 0 24 24" xmlns="http://www.w3.org/2000/svg" aria-hidden="true" fill="currentColor"><path d="m22.28 11.095-7.5-7.5a.75.75 0 0 0-1.28.53v3.782c-2.432.209-5.118 1.4-7.327 3.273-2.661 2.258-4.318 5.167-4.665 8.191a1.125 1.125 0 0 0 1.938.898c1.032-1.097 4.7-4.569 10.054-4.875v3.73a.75.75 0 0 0 1.28.53l7.5-7.5a.75.75 0 0 0 0-1.059M15 17.315v-2.69a.75.75 0 0 0-.75-.75c-2.632 0-5.196.687-7.62 2.043a18.4 18.4 0 0 0-3.43 2.487c.544-2.235 1.915-4.36 3.943-6.081 2.177-1.846 4.834-2.95 7.107-2.95a.75.75 0 0 0 .75-.75V5.937l5.69 5.689z"/></svg>
